!!!!SEGMENT: pl-kk--kk-i-473--007_kalous-vaclav--missa-solemnis-agnus.krn
!!!cenid: 17xx:1878
!!!COM: Kalous, Václav
!!!COM-rismID: pe30001658
!!!CDT: 1715-1786
!!!CNT: Czech
!!!OPR: Missa solemnis
!!!OTL: Agnus
!!!OMV: 007
!!!PDT:
!!!AGN: Sacred; Mass
!!!SMS-siglum: PL-Kk
!!!SMS-shelfmark: Kk.I.473
!!!SMS-shelfwork: 001-007 M
!!!SMS-variant:
!!!SMS-altvar:
!!!NIFC-rismSourceID: 1001139984
!!!NIFC-islandoraID: pl-kk:14007
!!!URL-pdf-islandora: https://repozytorium.nifc.pl/islandora/object/pl-kk%3A14007/datastream/PDF/view
!!!URL-scan: https://polish.musicsources.pl/pl/lokalizacje/galeria/rekopisy/6080 @EN{Scan on Polish Music Sources Website} @PL{Skany w portalu Dziedzictwo Muzyki Polskiej w otwartym dostępie}
!!!ONB-nifc: UWAGA: części Mszy: 1. Kyrie, 2. Gloria, 3. Patrem, 4. Sanctus, 5. Benedictus, 6. Osanna, 7. Agnus, 8. Dona
!!!AIN: 1 alto 1 bass 2 clrno 2 oboe 1 organ 1 soprn 1 tenor 2 viola 2 violn
!!!OMD:
!!!OMD-mod: Adagio
!!!key: G
**kern	**fba	**kern	**kern	**kern	**kern	**kern	**text	**kern	**text	**kern	**text	**kern	**text	**kern	**kern	**kern	**kern
*	*	*group4	*group4	*group4	*group4	*group3	*	*group3	*	*group3	*	*group3	*	*group2	*group2	*group1	*group1
*part13	*part13	*part12	*part11	*part10	*part9	*part8	*part8	*part7	*part7	*part6	*part6	*part5	*part5	*part4	*part3	*part2	*part1
*staff13	*staff13	*staff12	*staff11	*staff10	*staff9	*staff8	*staff8	*staff7	*staff7	*staff6	*staff6	*staff5	*staff5	*staff4	*staff3	*staff2	*staff1
*I"Organo.	*	*I"Alto Viola IIdo. vel Tromb:	*I"Alto Viola Ima. vel Tromb.	*I"Violino 2do	*I"Violino Primo	*I"Baſso	*	*I"Tenore	*	*I"Alto Concto.	*	*I"Canto Concto.	*	*I"Clarino 2do ex D.	*I"Clarino Primo in D.	*I"Oboe Secundo.	*I"Oboe Primo
*mI"Organo	*	*mI"Viola II	*mI"Viola I	*mI"Violino II	*mI"Violino II	*mI"Basso	*	*mI"Tenore	*	*mI"Alto	*	*mI"Soprano	*	*mI"Clarino II in D	*mI"Clarino I in D	*mI"Oboe II	*mI"Oboe II
*I'org	*	*I'vla 2	*I'vla 1	*I'vl 2	*I'vl 1	*I'B	*	*I'T	*	*I'A	*	*I'S	*	*I'clno 2 in D	*I'clno 1 in D	*I'ob 2	*I'ob 1
*Iorgan	*	*Iviola	*Iviola	*Ivioln	*Ivioln	*Ibass	*	*Itenor	*	*Ialto	*	*Isoprn	*	*Iclrno	*Iclrno	*Ioboe	*Ioboe
*ICklav	*	*ICstr	*ICstr	*ICstr	*ICstr	*ICvox	*	*ICvox	*	*ICvox	*	*ICvox	*	*ICbras	*ICbras	*ICww	*ICww
*IGcont	*	*	*	*	*	*IGcoro	*	*IGcoro	*	*IGcoro	*	*IGcoro	*	*	*	*	*
*clefF4	*	*clefC3	*clefC3	*clefG2	*clefG2	*clefF4	*	*clefC4	*	*clefC3	*	*clefC1	*	*clefG2	*clefG2	*clefG2	*
*	*	*	*	*	*	*	*	*mclefGv2	*	*mclefG2	*	*mclefG2	*	*	*	*	*
*	*	*	*	*	*	*	*	*	*	*	*	*	*	*ITrd-1c-2	*ITrd-1c-2	*	*
*	*	*	*	*	*	*	*	*	*	*	*	*	*	*tacet	*tacet	*tacet	*tacet
*	*	*	*	*	*kcancel	*	*	*	*	*	*	*	*	*	*	*	*
*k[f#]	*	*k[f#]	*k[f#]	*k[f#]	*k[f#c#]	*k[f#c#]	*	*k[f#]	*	*k[f#]	*	*k[f#c#]	*	*	*	*	*
*	*	*mk[f#]	*	*	*mk[f#]	*	*	*	*	*	*	*mk[f#]	*	*	*	*	*
*G:	*	*G:	*G:	*G:	*G:	*G:	*	*G:	*	*G:	*	*G:	*	*G:	*G:	*G:	*G:
*M4/4	*	*M4/4	*M4/4	*M4/4	*M4/4	*M4/4	*	*M4/4	*	*M4/4	*	*M4/4	*	*	*	*	*
*met(C.)	*	*met(C.)	*met(C.)	*met(c)	*met(c)	*met(c)	*	*met(C.)	*	*met(C.)	*	*met(C.)	*	*	*	*	*
*mmet(c)	*	*mmet(c)	*mmet(c)	*mmet(c)	*mmet(c)	*mmet(c)	*	*mmet(c)	*	*mmet(c)	*	*mmet(c)	*	*	*	*	*
*MM95	*	*MM95	*	*MM95	*MM95	*MM95	*	*MM95	*	*MM95	*	*MM95	*	*MM95	*MM95	*MM95	*MM95
=1	=1	=1	=1	=1	=1	=1	=1	=1	=1	=1	=1	=1	=1	=1	=1	=1	=1
!LO:TX:a:Bi:t=ad&colon;:rj:mod=	!	!LO:TX:a:Bi:t=adagio:rj:mod=	!LO:TX:a:Bi:t=adagio:rj:mod=	!LO:TX:a:Bi:t=Adagio:mod=	!LO:TX:a:Bi:t=Adagio:mod=	!LO:TX:a:Bi:t=Adao.:mod=	!	!LO:TX:a:Bi:t=Ada:mod=	!	!LO:TX:a:Bi:t=adao.:mod=	!	!LO:TX:a:Bi:t=adao.:mod=	!	!	!	!	!
!LO:TX:a:Bi:t=S&colon;:mod=	!	!LO:TX:a:Bi:t=Solo:mod=	!LO:TX:a:Bi:t=Solo Tromb&colon;:mod=	!	!	!	!	!	!	!	!	!LO:TX:t=P:problem=c# zapisany oktawę wyżej	!	!LO:TX:a:Bi:t=Agnus Dei Tacet:mod=	!LO:TX:a:Bi:t=Agnus Tacet:mod=	!LO:TX:a:Bi:t=Agnus Dei Tacet:mod=	!LO:TX:a:Bi:t=Agnus Dei Tacet:mod=
8G\L	.	8r	8d\	2r	2r	00r	.	00r	.	00r	.	00r	.	1ryy	1ryy	1ryy	1ryy
8G\	.	4B/	4g\	.	.	.	.	.	.	.	.	.	.	.	.	.	.
8G\	.	.	.	.	.	.	.	.	.	.	.	.	.	.	.	.	.
8G\J	.	8B/	8g\	.	.	.	.	.	.	.	.	.	.	.	.	.	.
8D\L	7	8c/L	8a\L	8r	8r	.	.	.	.	.	.	.	.	.	.	.	.
8G\J	.	8B/J	8g\J	16g/LL	16b\LL	.	.	.	.	.	.	.	.	.	.	.	.
.	.	.	.	16b/JJ	16dd\JJ	.	.	.	.	.	.	.	.	.	.	.	.
!	!	!	!	!	!LO:SIC:s=8ccL	!	!	!	!	!	!	!	!	!	!	!	!
8r	.	8r	8r	8a/L	8ccn\L	.	.	.	.	.	.	.	.	.	.	.	.
8G\	.	8B/	8g\	8g/J	8b\J	.	.	.	.	.	.	.	.	.	.	.	.
=2	=2	=2	=2	=2	=2	=2	=2	=2	=2	=2	=2	=2	=2	=2	=2	=2	=2
4C/	5	8c/	8g\L	2r	2r	.	.	.	.	.	.	.	.	1ryy	1ryy	1ryy	1ryy
.	.	4c/	8e\	.	.	.	.	.	.	.	.	.	.	.	.	.	.
8r	.	.	8a\	.	.	.	.	.	.	.	.	.	.	.	.	.	.
8C/	6	8B/	8g\J	.	.	.	.	.	.	.	.	.	.	.	.	.	.
!	!	!LO:SIC:s=8qqB	!	!	!	!	!	!	!	!	!	!	!	!	!	!	!
.	.	8qB/	8qqg/	.	.	.	.	.	.	.	.	.	.	.	.	.	.
4D\	.	4A/	4f#\	16r	16r	.	.	.	.	.	.	.	.	.	.	.	.
.	.	.	.	16d/LL	16ff#\LL	.	.	.	.	.	.	.	.	.	.	.	.
.	.	.	.	16.d/	16.ff#\	.	.	.	.	.	.	.	.	.	.	.	.
.	.	.	.	32e/JJk	32gg\JJk	.	.	.	.	.	.	.	.	.	.	.	.
8r	.	4r	4r	16.f#/LL	16.gg\LL	.	.	.	.	.	.	.	.	.	.	.	.
.	.	.	.	32f#/K	32aa\K	.	.	.	.	.	.	.	.	.	.	.	.
8D\	.	.	.	16.f#/	16.aa\	.	.	.	.	.	.	.	.	.	.	.	.
.	.	.	.	32f#/JJk	32dd\JJk	.	.	.	.	.	.	.	.	.	.	.	.
=3	=3	=3	=3	=3	=3	=3	=3	=3	=3	=3	=3	=3	=3	=3	=3	=3	=3
.	.	.	.	.	8qqdd/	.	.	.	.	.	.	.	.	.	.	.	.
4A\	#	8r	8r	4e/	4cc#X\	.	.	.	.	.	.	.	.	1ryy	1ryy	1ryy	1ryy
.	.	8e\	8g\	.	.	.	.	.	.	.	.	.	.	.	.	.	.
8r	.	8e\L	16g\LL	4r	4r	.	.	.	.	.	.	.	.	.	.	.	.
.	.	.	16a\J	.	.	.	.	.	.	.	.	.	.	.	.	.	.
8AA/	.	16f#\L	8g\J	.	.	.	.	.	.	.	.	.	.	.	.	.	.
.	.	16e\JJ	.	.	.	.	.	.	.	.	.	.	.	.	.	.	.
!	!	!LO:SIC:s=8eTL	!	!	!	!	!	!	!	!	!	!	!	!	!	!	!
4D\	.	8e\L	8gT>\L	16r	16r	.	.	.	.	.	.	.	.	.	.	.	.
.	.	.	.	16d/LL	16ff#\LL	.	.	.	.	.	.	.	.	.	.	.	.
.	.	8d\J	8f#\J	16.d/	16.ff#\	.	.	.	.	.	.	.	.	.	.	.	.
.	.	.	.	32e/JJk	32gg\JJk	.	.	.	.	.	.	.	.	.	.	.	.
8r	.	4r	4r	16.e/LL	16.gg\LL	.	.	.	.	.	.	.	.	.	.	.	.
.	.	.	.	32f#/K	32aa\K	.	.	.	.	.	.	.	.	.	.	.	.
8D\	.	.	.	16.f#/	16.aa\	.	.	.	.	.	.	.	.	.	.	.	.
.	.	.	.	32a/JJk	32dd\JJk	.	.	.	.	.	.	.	.	.	.	.	.
=4	=4	=4	=4	=4	=4	=4	=4	=4	=4	=4	=4	=4	=4	=4	=4	=4	=4
.	.	.	.	.	8qqdd/	.	.	.	.	.	.	.	.	.	.	.	.
4D\	n7	8r	8r	4a/	4ccn\	.	.	.	.	.	.	.	.	1ryy	1ryy	1ryy	1ryy
.	.	8c\	8a\	.	.	.	.	.	.	.	.	.	.	.	.	.	.
8r	.	8c\L	16a\LL	4r	4r	.	.	.	.	.	.	.	.	.	.	.	.
.	.	.	16b\J	.	.	.	.	.	.	.	.	.	.	.	.	.	.
8D\	.	16d\L	8a\J	.	.	.	.	.	.	.	.	.	.	.	.	.	.
.	.	16c\JJ	.	.	.	.	.	.	.	.	.	.	.	.	.	.	.
4G\	.	8c/L	8a\L	2r	16r	.	.	.	.	.	.	.	.	.	.	.	.
.	.	.	.	.	16d/LL	.	.	.	.	.	.	.	.	.	.	.	.
.	.	8B/J	8g\J	.	16.d/	.	.	.	.	.	.	.	.	.	.	.	.
.	.	.	.	.	32g/JJk	.	.	.	.	.	.	.	.	.	.	.	.
4r	.	4r	4r	.	16.g\LL	.	.	.	.	.	.	.	.	.	.	.	.
.	.	.	.	.	32b\K	.	.	.	.	.	.	.	.	.	.	.	.
.	.	.	.	.	16.b\	.	.	.	.	.	.	.	.	.	.	.	.
.	.	.	.	.	32dd\JJk	.	.	.	.	.	.	.	.	.	.	.	.
=5	=5	=5	=5	=5	=5	=5	=5	=5	=5	=5	=5	=5	=5	=5	=5	=5	=5
8r	.	8r	8r	8r	[>1dd	00r	.	1r	.	1r	.	00r	.	1ryy	1ryy	1ryy	1ryy
!LO:TX:t=P:problem=mixed beam	!	!	!	!	!	!	!	!	!	!	!	!	!	!	!	!	!
8G\L	.	8g\	8b\	8d/L	.	.	.	.	.	.	.	.	.	.	.	.	.
8D\	4	16f#\LL	16a\LL	8d/	.	.	.	.	.	.	.	.	.	.	.	.	.
.	.	16g\J	16b\J	.	.	.	.	.	.	.	.	.	.	.	.	.	.
8DD/J	3	8a\J	8cc\J	8f#/J	.	.	.	.	.	.	.	.	.	.	.	.	.
!	!	!LO:LB:g=original	!	!	!	!	!	!	!	!	!	!	!	!	!	!	!
!LO:TX:t=P:problem=mixed beam	!	!LO:TX:t=P:problem=mixed beam	!	!	!	!	!	!	!	!	!	!	!	!	!	!	!
8GG/L	.	8g\L	8b\L	8r	.	.	.	.	.	.	.	.	.	.	.	.	.
8G\	.	8B/J	8g\J	8d/L	.	.	.	.	.	.	.	.	.	.	.	.	.
8D\	4	16A/LL	16f#\LL	8d/	.	.	.	.	.	.	.	.	.	.	.	.	.
.	.	16B/J	16g\J	.	.	.	.	.	.	.	.	.	.	.	.	.	.
8DD/J	3	8c/J	8a\J	8f#/J	.	.	.	.	.	.	.	.	.	.	.	.	.
!	!	!	!	!LO:LB:g=original	!	!	!	!	!	!	!	!	!	!	!	!	!
=6	=6	=6	=6	=6	=6	=6	=6	=6	=6	=6	=6	=6	=6	=6	=6	=6	=6
!	!	!	!	!	!LO:MO:mod=*null:null	!	!	!	!	!	!	!	!	!	!	!	!
*	*	*	*	*	*k[f#]	*	*	*	*	*	*	*	*	*	*	*	*
8GG/L	.	4B/	8g\	8d/	16dd\LL]	.	.	2r	.	2r	.	.	.	1ryy	1ryy	1ryy	1ryy
.	.	.	.	.	16b\	.	.	.	.	.	.	.	.	.	.	.	.
8E/	.	.	4g\	4g/	16a\	.	.	.	.	.	.	.	.	.	.	.	.
.	.	.	.	.	16g\JJ	.	.	.	.	.	.	.	.	.	.	.	.
8C/	6 5	4AT>/	.	.	4aT>\	.	.	.	.	.	.	.	.	.	.	.	.
8D/J	.	.	8f#\	8f#/	.	.	.	.	.	.	.	.	.	.	.	.	.
!	!	!	!	!	!LO:LB:g=original	!	!	!	!	!	!	!	!	!	!	!	!
!LO:TX:t=P:problem=mixed beam	!	!	!	!	!	!	!	!	!	!	!	!	!	!	!	!	!
8GG/L	.	4G/	4g\	4g/	4g/	.	.	4.B\	A-	4.g\	A-	.	.	.	.	.	.
8G\	.	.	.	.	.	.	.	.	.	.	.	.	.	.	.	.	.
8G\	.	4r	4r	4r	4r	.	.	.	.	.	.	.	.	.	.	.	.
8G\J	.	.	.	.	.	.	.	8B\	-gnus	8g\	-gnus	.	.	.	.	.	.
!LO:LB:g=original	!	!	!LO:LB:g=original	!	!	!	!	!	!	!	!	!	!	!	!	!	!
=7	=7	=7	=7	=7	=7	=7	=7	=7	=7	=7	=7	=7	=7	=7	=7	=7	=7
.	.	.	.	.	.	.	.	.	.	8qqb/	.	.	.	.	.	.	.
8D\L	7	0r	2r	8r	8r	.	.	8c\	De-	8a\	De-	.	.	1ryy	1ryy	1ryy	1ryy
8G\J	.	.	.	16G/LL	16B/LL	.	.	8B\	-i	8g\	-i	.	.	.	.	.	.
.	.	.	.	16B/JJ	16d/JJ	.	.	.	.	.	.	.	.	.	.	.	.
!	!	!	!	!	!LO:SIC:s=8cL	!	!	!	!	!	!	!	!	!	!	!	!
8r	.	.	.	8A/L	8cn/L	.	.	4r	.	8r	.	.	.	.	.	.	.
8GG/	.	.	.	8G/J	8B/J	.	.	.	.	8g\	qui	.	.	.	.	.	.
4C/	.	.	8r	2r	2r	.	.	2r	.	8e\	tol-	.	.	.	.	.	.
.	.	.	8g\L	.	.	.	.	.	.	16cc\	-lis	.	.	.	.	.	.
.	.	.	.	.	.	.	.	.	.	16b\	pec-	.	.	.	.	.	.
8r	.	.	8cc\	.	.	.	.	.	.	8a\	-ca-	.	.	.	.	.	.
8C/	.	.	8b\J	.	.	.	.	.	.	8g\	-ta	.	.	.	.	.	.
=8	=8	=8	=8	=8	=8	=8	=8	=8	=8	=8	=8	=8	=8	=8	=8	=8	=8
4D\	.	.	8b\L	2r	2r	.	.	8r	.	8g\	mun-	.	.	1ryy	1ryy	1ryy	1ryy
.	.	.	8a\J	.	.	.	.	4d\	mi-	8f#\	-di	.	.	.	.	.	.
4r	.	.	4r	.	.	.	.	.	.	4r	.	.	.	.	.	.	.
.	.	.	.	.	.	.	.	8d\	-se-	.	.	.	.	.	.	.	.
!	!	!	!	!	!	!	!	!LO:MO:mod=*null:null	!	!	!	!	!	!	!	!	!
*	*	*	*	*	*	*	*	*2\right	*	*	*	*	*	*	*	*	*
4D\	.	.	2r	16r	16r	.	.	2d\	-re-	2r	.	.	.	.	.	.	.
.	.	.	.	16A/LL	16f#/LL	.	.	.	.	.	.	.	.	.	.	.	.
!	!	!	!	!	!LO:SIC:s=(16f#	!	!	!	!	!	!	!	!	!	!	!	!
.	.	.	.	(<16A/	16f#/	.	.	.	.	.	.	.	.	.	.	.	.
!	!	!	!	!	!LO:SIC:s=16gJJ)	!	!	!	!	!	!	!	!	!	!	!	!
.	.	.	.	16B/JJ)	16g/JJ	.	.	.	.	.	.	.	.	.	.	.	.
!	!	!	!	!	!LO:SIC:s=(16gLL	!	!	!	!	!	!	!	!	!	!	!	!
8r	.	.	.	(<16B/LL	16g/LL	.	.	.	.	.	.	.	.	.	.	.	.
!	!	!	!	!	!LO:SIC:s=16a)	!	!	!	!	!	!	!	!	!	!	!	!
.	.	.	.	16c/)	16a/	.	.	.	.	.	.	.	.	.	.	.	.
!	!	!	!	!	!LO:SIC:s=(16a	!	!	!	!	!	!	!	!	!	!	!	!
8D\	.	.	.	(<16c/	16a/	.	.	.	.	.	.	.	.	.	.	.	.
!	!	!	!	!	!LO:SIC:s=16gJJ)	!	!	!	!	!	!	!	!	!	!	!	!
.	.	.	.	16B/JJ)	16g/JJ	.	.	.	.	.	.	.	.	.	.	.	.
=9	=9	=9	=9	=9	=9	=9	=9	=9	=9	=9	=9	=9	=9	=9	=9	=9	=9
4G\	.	1r	1r	4B/	4g/	00r	.	8d\	-re	8r	.	00r	.	1ryy	1ryy	1ryy	1ryy
.	.	.	.	.	.	.	.	4B\	mi-	4g\	mi-	.	.	.	.	.	.
8E\L	n	.	.	4r	4r	.	.	.	.	.	.	.	.	.	.	.	.
8G\J	6	.	.	.	.	.	.	16c#X\LL	-se-	8g\	-se-	.	.	.	.	.	.
.	.	.	.	.	.	.	.	16d\JJ	.	.	.	.	.	.	.	.	.
.	.	.	.	.	.	.	.	8qqd/	.	.	.	.	.	.	.	.	.
4A\	#	.	.	2r	2r	.	.	4.c#\	-re-	16g\LL	-re-	.	.	.	.	.	.
.	.	.	.	.	.	.	.	.	.	16e\	.	.	.	.	.	.	.
.	.	.	.	.	.	.	.	.	.	16f#\	.	.	.	.	.	.	.
.	.	.	.	.	.	.	.	.	.	16g\JJ	.	.	.	.	.	.	.
8r	.	.	.	.	.	.	.	.	.	8a\L	.	.	.	.	.	.	.
8C#X/	6	.	.	.	.	.	.	16d\LL	.	8g\J	.	.	.	.	.	.	.
.	.	.	.	.	.	.	.	[>16e\JJ	.	.	.	.	.	.	.	.	.
!	!	!	!	!	!	!	!	!	!	!LO:LB:g=original	!	!	!	!	!	!	!
=10	=10	=10	=10	=10	=10	=10	=10	=10	=10	=10	=10	=10	=10	=10	=10	=10	=10
4D\	.	2r	2r	1r	1r	.	.	8e\]	.	8f#\	-re	.	.	1ryy	1ryy	1ryy	1ryy
.	.	.	.	.	.	.	.	16d\LL	-re	8f#\L	no-	.	.	.	.	.	.
!	!	!	!	!	!	!	!	!LO:SIC:s=16c#JJ	!	!	!	!	!	!	!	!	!
.	.	.	.	.	.	.	.	16c\JJ	.	.	.	.	.	.	.	.	.
8F#\L	.	.	.	.	.	.	.	4d\	no-	8a\	.	.	.	.	.	.	.
8D\J	.	.	.	.	.	.	.	.	.	8f#\J	.	.	.	.	.	.	.
4A\	#	8r	8r	.	.	.	.	4c#X\	-bis	4e\	-bis	.	.	.	.	.	.
.	.	8c#X\L	8e\L	.	.	.	.	.	.	.	.	.	.	.	.	.	.
8r	.	8d\	8f#\	.	.	.	.	4r	.	4r	.	.	.	.	.	.	.
8AA/	.	8e\J	8g\J	.	.	.	.	.	.	.	.	.	.	.	.	.	.
=11	=11	=11	=11	=11	=11	=11	=11	=11	=11	=11	=11	=11	=11	=11	=11	=11	=11
!	!	!LO:SIC:s=8eTL	!	!	!	!	!	!	!	!	!	!	!	!	!	!	!
4D\	.	8e\L	8gT>\L	8r	2r	.	.	2r	.	8r	.	.	.	1ryy	1ryy	1ryy	1ryy
.	.	8d\J	8f#\J	8a/L	.	.	.	.	.	4a\	mi-	.	.	.	.	.	.
8F#\L	6	4r	4r	8a/	.	.	.	.	.	.	.	.	.	.	.	.	.
8D\J	.	.	.	8f#/J	.	.	.	.	.	8a\	-se-	.	.	.	.	.	.
!	!	!	!	!	!	!	!	!LO:LB:g=original	!	!	!	!	!	!	!	!	!
4G\	.	2rB	2r	4d/	8r	.	.	4.B\	mi-	8a\L	-re-	.	.	.	.	.	.
.	.	.	.	.	8b\L	.	.	.	.	16g\L	.	.	.	.	.	.	.
.	.	.	.	.	.	.	.	.	.	16f#\JJ	.	.	.	.	.	.	.
8E\L	n	.	.	8r	8g\	.	.	.	.	[>4g\	.	.	.	.	.	.	.
8G\J	6	.	.	8g/	8ee\J	.	.	16e\LL	-se-	.	.	.	.	.	.	.	.
.	.	.	.	.	.	.	.	16d\JJ	.	.	.	.	.	.	.	.	.
=12	=12	=12	=12	=12	=12	=12	=12	=12	=12	=12	=12	=12	=12	=12	=12	=12	=12
4A\	# x	1r	1r	4e/	4cc#X\	.	.	8c#X\	-re-	8g\]	.	.	.	1ryy	1ryy	1ryy	1ryy
.	.	.	.	.	.	.	.	8c#\	-re	8e\	-re	.	.	.	.	.	.
8r	.	.	.	4r	4r	.	.	8r	.	8a\	mi-	.	.	.	.	.	.
8C#X/	6 x	.	.	.	.	.	.	8e\	no-	8g\	-se-	.	.	.	.	.	.
8D\L	.	.	.	2r	2r	.	.	8e\	.	8f#\	-re-	.	.	.	.	.	.
8B\	.	.	.	.	.	.	.	4d\	.	16e\LL	-re	.	.	.	.	.	.
.	.	.	.	.	.	.	.	.	.	16d\JJ	.	.	.	.	.	.	.
8G\	6 5	.	.	.	.	.	.	.	.	4e\	no-	.	.	.	.	.	.
8A\J	#	.	.	.	.	.	.	8c#\	.	.	.	.	.	.	.	.	.
=13	=13	=13	=13	=13	=13	=13	=13	=13	=13	=13	=13	=13	=13	=13	=13	=13	=13
8D/L	.	4.f#\	4.a\	2r	2r	00r	.	4d\	-bis	4d\	-bis	00r	.	1ryy	1ryy	1ryy	1ryy
8D/	.	.	.	.	.	.	.	.	.	.	.	.	.	.	.	.	.
8D/	.	.	.	.	.	.	.	4r	.	4r	.	.	.	.	.	.	.
8D/J	.	8f#\	8a\	.	.	.	.	.	.	.	.	.	.	.	.	.	.
8AA/L	7 #	8e\L	8g\L	8r	8r	.	.	2r	.	2r	.	.	.	.	.	.	.
8D/J	.	8d\J	8f#\J	16dd\LL	16ff#\LL	.	.	.	.	.	.	.	.	.	.	.	.
.	.	.	.	16ff#\JJ	16aa\JJ	.	.	.	.	.	.	.	.	.	.	.	.
8r	.	8r	8r	8ee\L	8gg\L	.	.	.	.	.	.	.	.	.	.	.	.
8D/	.	8d\	8a\	8dd\J	8ff#\J	.	.	.	.	.	.	.	.	.	.	.	.
=14	=14	=14	=14	=14	=14	=14	=14	=14	=14	=14	=14	=14	=14	=14	=14	=14	=14
4G\	.	4d\	16b\LL	2r	2r	.	.	0r	.	0r	.	.	.	1ryy	1ryy	1ryy	1ryy
.	.	.	16a\JJ	.	.	.	.	.	.	.	.	.	.	.	.	.	.
.	.	.	4g\	.	.	.	.	.	.	.	.	.	.	.	.	.	.
8E\L	.	8e\L	.	.	.	.	.	.	.	.	.	.	.	.	.	.	.
16F#\L	.	8d\J	8f#\	.	.	.	.	.	.	.	.	.	.	.	.	.	.
16G\JJ	.	.	.	.	.	.	.	.	.	.	.	.	.	.	.	.	.
!LO:LB:g=original	!	!	!	!	!	!	!	!	!	!	!	!	!	!	!	!	!
!LO:TX:t=P:problem=mixed beam	!	!LO:SIC:s=8dTL	!	!	!	!	!	!	!	!	!	!	!	!	!	!	!
8A\L	4	8d\L	8f#t>\L	16r	16r	.	.	.	.	.	.	.	.	.	.	.	.
.	.	.	.	16a/LL	16cc#X\LL	.	.	.	.	.	.	.	.	.	.	.	.
8AA/J	#	8c#X\J	8e\J	16.a/	16.cc#\	.	.	.	.	.	.	.	.	.	.	.	.
.	.	.	.	32b/JJk	32dd\JJk	.	.	.	.	.	.	.	.	.	.	.	.
4r	.	4r	4r	16.b\LL	16.dd\LL	.	.	.	.	.	.	.	.	.	.	.	.
.	.	.	.	32cc#X\K	32ee\K	.	.	.	.	.	.	.	.	.	.	.	.
.	.	.	.	16.cc#\	16.ee\	.	.	.	.	.	.	.	.	.	.	.	.
.	.	.	.	32a\JJk	32g\JJk	.	.	.	.	.	.	.	.	.	.	.	.
=15	=15	=15	=15	=15	=15	=15	=15	=15	=15	=15	=15	=15	=15	=15	=15	=15	=15
4A\	#	8r	8r	4e/	4g/	.	.	.	.	.	.	.	.	1ryy	1ryy	1ryy	1ryy
.	.	8e\	8g\	.	.	.	.	.	.	.	.	.	.	.	.	.	.
8r	.	16e\LL	16g\LL	4r	4r	.	.	.	.	.	.	.	.	.	.	.	.
.	.	16f#\J	16a\J	.	.	.	.	.	.	.	.	.	.	.	.	.	.
8A\	.	8e\J	8g\J	.	.	.	.	.	.	.	.	.	.	.	.	.	.
4D/	.	8e\L	8g\L	2r	16r	.	.	.	.	.	.	.	.	.	.	.	.
.	.	.	.	.	16a\LL	.	.	.	.	.	.	.	.	.	.	.	.
.	.	8d\J	8f#\J	.	16.a\	.	.	.	.	.	.	.	.	.	.	.	.
*	*	*	*	*	*custos:dd	*	*	*	*	*	*	*	*	*	*	*	*
.	.	.	.	.	32dd\JJk	.	.	.	.	.	.	.	.	.	.	.	.
!	!	!	!	!	!LO:LB:g=original	!	!	!	!	!	!	!	!	!	!	!	!
4r	.	4r	4r	.	16.dd\LL	.	.	.	.	.	.	.	.	.	.	.	.
.	.	.	.	.	32ff#\K	.	.	.	.	.	.	.	.	.	.	.	.
.	.	.	.	.	16.ff#\	.	.	.	.	.	.	.	.	.	.	.	.
.	.	.	.	.	32aa\JJk	.	.	.	.	.	.	.	.	.	.	.	.
!	!	!LO:LB:g=original	!	!	!	!	!	!	!	!	!	!	!	!	!	!	!
=16	=16	=16	=16	=16	=16	=16	=16	=16	=16	=16	=16	=16	=16	=16	=16	=16	=16
8r	.	8r	8r	8r	[>1aa	.	.	1r	.	1r	.	.	.	1ryy	1ryy	1ryy	1ryy
!LO:TX:t=P:problem=mixed beam	!	!	!	!	!	!	!	!	!	!	!	!	!	!	!	!	!
8D\L	.	8d\	8f#\	8a\L	.	.	.	.	.	.	.	.	.	.	.	.	.
8A\	.	16c#X\LL	16e\LL	8a\	.	.	.	.	.	.	.	.	.	.	.	.	.
.	.	16d\J	16f#\J	.	.	.	.	.	.	.	.	.	.	.	.	.	.
8AA/J	.	8e\J	8g\J	8cc#X\J	.	.	.	.	.	.	.	.	.	.	.	.	.
!LO:TX:t=P:problem=mixed beam	!	!	!	!	!	!	!	!	!	!	!	!	!	!	!	!	!
8D\L	.	8d\L	8f#\L	8r	.	.	.	.	.	.	.	.	.	.	.	.	.
8d\	.	8d\J	8f#\J	8a\L	.	.	.	.	.	.	.	.	.	.	.	.	.
!	!	!LO:SIC:s=16c#LL	!	!	!	!	!	!	!	!	!	!	!	!	!	!	!
8A\	4	16c#X\LL	16e\LL	8a\	.	.	.	.	.	.	.	.	.	.	.	.	.
.	#	16d\J	16f#\J	.	.	.	.	.	.	.	.	.	.	.	.	.	.
8AA/J	.	8e\J	8g\J	8cc#\J	.	.	.	.	.	.	.	.	.	.	.	.	.
!	!	!	!LO:LB:g=original	!	!	!	!	!	!	!	!	!	!	!	!	!	!
=17	=17	=17	=17	=17	=17	=17	=17	=17	=17	=17	=17	=17	=17	=17	=17	=17	=17
8D\L	.	8d\	4f#\	8a/	16aa\LL]	00r	.	2r	.	2r	.	00r	.	1ryy	1ryy	1ryy	1ryy
.	.	.	.	.	16ff#\	.	.	.	.	.	.	.	.	.	.	.	.
8B\	.	4d\	.	4dd\	16ee\	.	.	.	.	.	.	.	.	.	.	.	.
.	.	.	.	.	16dd\JJ	.	.	.	.	.	.	.	.	.	.	.	.
.	.	.	.	.	8qqff#/	.	.	.	.	.	.	.	.	.	.	.	.
8G\	6 5	.	4eT>\	.	4eeT>\	.	.	.	.	.	.	.	.	.	.	.	.
8A\J	# x	8c#X\	.	8cc#X\	.	.	.	.	.	.	.	.	.	.	.	.	.
8D/L	.	4d\	4d\	4dd\	4dd\	.	.	4.d\	A-	4.f#\	A-	.	.	.	.	.	.
8D/	.	.	.	.	.	.	.	.	.	.	.	.	.	.	.	.	.
8D/	.	4r	4r	4r	4r	.	.	.	.	.	.	.	.	.	.	.	.
8D/J	.	.	.	.	.	.	.	8d\	-gnus	8f#\	-gnus	.	.	.	.	.	.
=18	=18	=18	=18	=18	=18	=18	=18	=18	=18	=18	=18	=18	=18	=18	=18	=18	=18
8AA/L	7 #	8r	8r	1r	1r	.	.	8e\	De-	8g\	De-	.	.	1ryy	1ryy	1ryy	1ryy
8D/J	.	8f#\L	8a\L	.	.	.	.	8d\	-i	8f#\	-i	.	.	.	.	.	.
!	!	!	!	!	!	!	!	!	!	!LO:LB:g=original	!	!	!	!	!	!	!
4r	.	8e\	8g\	.	.	.	.	8r	.	8r	.	.	.	.	.	.	.
.	.	8d\J	8f#\J	.	.	.	.	8d\	qui	16f#\LL	qui	.	.	.	.	.	.
.	.	.	.	.	.	.	.	.	.	16g\JJ	.	.	.	.	.	.	.
!	!	!	!	!	!	!	!	!LO:SIC:s=4c	!	!	!	!	!	!	!	!	!
8r	.	2r	2r	.	.	.	.	4cn\	tol-	4a\	tol-	.	.	.	.	.	.
8D\L	.	.	.	.	.	.	.	.	.	.	.	.	.	.	.	.	.
8D\	.	.	.	.	.	.	.	8c\	-lis	8a\	-lis	.	.	.	.	.	.
8D\J	.	.	.	.	.	.	.	8c\	pec-	8a\	pec-	.	.	.	.	.	.
=19	=19	=19	=19	=19	=19	=19	=19	=19	=19	=19	=19	=19	=19	=19	=19	=19	=19
8r	.	00r	00r	2r	2r	.	.	8B\	-ca-	8g\	-ca-	.	.	1ryy	1ryy	1ryy	1ryy
8D\L	6 4	.	.	.	.	.	.	8B\	-ta	8g\	-ta	.	.	.	.	.	.
8D\	.	.	.	.	.	.	.	4B\	mun-	4g\	mun-	.	.	.	.	.	.
8D\J	.	.	.	.	.	.	.	.	.	.	.	.	.	.	.	.	.
4D\	5 3	.	.	8r	8r	.	.	4A\	-di	4f#\	-di	.	.	.	.	.	.
.	.	.	.	16d/LL	16f#/LL	.	.	.	.	.	.	.	.	.	.	.	.
.	.	.	.	16f#/JJ	16a/JJ	.	.	.	.	.	.	.	.	.	.	.	.
8r	.	.	.	8e/L	8g/L	.	.	4r	.	4r	.	.	.	.	.	.	.
16D/LL	.	.	.	8d/J	8f#/J	.	.	.	.	.	.	.	.	.	.	.	.
!LO:SIC:s=16CJJ	!	!	!	!	!	!	!	!	!	!	!	!	!	!	!	!	!
16Cn/JJ	.	.	.	.	.	.	.	.	.	.	.	.	.	.	.	.	.
!	!	!	!	!	!	!	!	!LO:LB:g=original	!	!	!	!	!	!	!	!	!
=20	=20	=20	=20	=20	=20	=20	=20	=20	=20	=20	=20	=20	=20	=20	=20	=20	=20
8BB/L	6	.	.	4d/	4g/	.	.	8r	.	4r	.	.	.	1ryy	1ryy	1ryy	1ryy
8BB/	.	.	.	.	.	.	.	4d\	mi-	.	.	.	.	.	.	.	.
8BB/	.	.	.	4r	4r	.	.	.	.	8r	.	.	.	.	.	.	.
8BB/J	.	.	.	.	.	.	.	8d\	-se-	4g\	mi-	.	.	.	.	.	.
8C/L	.	.	.	2r	2r	.	.	[>2e\	-re-	.	.	.	.	.	.	.	.
8C/	5	.	.	.	.	.	.	.	.	8a\	-se-	.	.	.	.	.	.
8C/	6	.	.	.	.	.	.	.	.	8a\	-re-	.	.	.	.	.	.
8C/J	.	.	.	.	.	.	.	.	.	8g\	-re	.	.	.	.	.	.
=21	=21	=21	=21	=21	=21	=21	=21	=21	=21	=21	=21	=21	=21	=21	=21	=21	=21
4D\	.	.	.	0r	1r	0r	.	8e\]	.	8f#\	mi-	0r	.	1ryy	1ryy	1ryy	1ryy
.	.	.	.	.	.	.	.	4d\	.	8f#\	-se-	.	.	.	.	.	.
4DD/	.	.	.	.	.	.	.	.	.	8g\	-re-	.	.	.	.	.	.
!	!	!	!	!	!	!	!	!LO:SIC:s=8c	!	!	!	!	!	!	!	!	!
.	.	.	.	.	.	.	.	8cn\	.	8a\	-re	.	.	.	.	.	.
!LO:LB:g=original	!	!	!	!	!	!	!	!	!	!	!	!	!	!	!	!	!
!LO:TX:t=P:problem=mixed beam	!	!	!	!	!	!	!	!	!	!	!	!	!	!	!	!	!
16GG/LL	.	.	.	.	.	.	.	2B\	.	4.g\	mi-	.	.	.	.	.	.
16G\	.	.	.	.	.	.	.	.	.	.	.	.	.	.	.	.	.
16E\	.	.	.	.	.	.	.	.	.	.	.	.	.	.	.	.	.
16G\JJ	.	.	.	.	.	.	.	.	.	.	.	.	.	.	.	.	.
!LO:TX:t=P:problem=mixed beam	!	!	!	!	!	!	!	!	!	!	!	!	!	!	!	!	!
16EE/LL	.	.	.	.	.	.	.	.	.	.	.	.	.	.	.	.	.
16E\	.	.	.	.	.	.	.	.	.	.	.	.	.	.	.	.	.
16D\	.	.	.	.	.	.	.	.	.	8g\	-se-	.	.	.	.	.	.
16E\JJ	.	.	.	.	.	.	.	.	.	.	.	.	.	.	.	.	.
=22	=22	=22	=22	=22	=22	=22	=22	=22	=22	=22	=22	=22	=22	=22	=22	=22	=22
4C/	6 5	.	.	.	2r	.	.	8A\	.	8g\	-re-	.	.	1ryy	1ryy	1ryy	1ryy
.	.	.	.	.	.	.	.	8A\	-re	8g,<\	-re,	.	.	.	.	.	.
!LO:TX:t=P:problem=mixed beam	!	!	!	!	!	!	!	!	!	!	!	!	!	!	!	!	!
8D\L	4 x	.	.	.	.	.	.	4A\	no-	4f#\	no-	.	.	.	.	.	.
.	3 x	.	.	.	.	.	.	.	.	.	.	.	.	.	.	.	.
8DD/J	.	.	.	.	.	.	.	.	.	.	.	.	.	.	.	.	.
4GG/	.	.	.	.	16r	.	.	4G/	-bis	4g\	-bis	.	.	.	.	.	.
.	.	.	.	.	16d/LL	.	.	.	.	.	.	.	.	.	.	.	.
.	.	.	.	.	16.d/	.	.	.	.	.	.	.	.	.	.	.	.
.	.	.	.	.	32g/JJk	.	.	.	.	.	.	.	.	.	.	.	.
4r	.	.	.	.	16.g\LL	.	.	4r	.	4r	.	.	.	.	.	.	.
.	.	.	.	.	32b\K	.	.	.	.	.	.	.	.	.	.	.	.
.	.	.	.	.	16.b\	.	.	.	.	.	.	.	.	.	.	.	.
.	.	.	.	.	32dd\JJk	.	.	.	.	.	.	.	.	.	.	.	.
!	!	!	!	!	!	!	!	!	!	!LO:LB:g=original	!	!	!	!	!	!	!
=23	=23	=23	=23	=23	=23	=23	=23	=23	=23	=23	=23	=23	=23	=23	=23	=23	=23
8r	.	8r	8r	8r	[>1dd	1r	.	1r	.	1r	.	1r	.	1ryy	1ryy	1ryy	1ryy
8GG/L	.	8g\	8b\	8d/L	.	.	.	.	.	.	.	.	.	.	.	.	.
8D/	.	16f#\LL	16a\LL	8d/	.	.	.	.	.	.	.	.	.	.	.	.	.
.	.	16g\J	16b\J	.	.	.	.	.	.	.	.	.	.	.	.	.	.
8DD/J	.	8a\J	8cc\J	8f#/J	.	.	.	.	.	.	.	.	.	.	.	.	.
!LO:TX:t=P:problem=mixed beam	!	!LO:TX:t=P:problem=mixed beam	!	!	!	!	!	!	!	!	!	!	!	!	!	!	!
8G\L	.	8g\L	8b\L	8r	.	.	.	.	.	.	.	.	.	.	.	.	.
8GG/	.	8B/J	8g\J	8d/L	.	.	.	.	.	.	.	.	.	.	.	.	.
8D\	4	16A/LL	16f#\LL	8d/	.	.	.	.	.	.	.	.	.	.	.	.	.
.	3	16B/J	16g\J	.	.	.	.	.	.	.	.	.	.	.	.	.	.
8DD/J	.	8c/J	8a\J	8f#/J	.	.	.	.	.	.	.	.	.	.	.	.	.
!	!	!	!	!LO:LB:g=original	!	!	!	!	!	!	!	!	!	!	!	!	!
=24	=24	=24	=24	=24	=24	=24	=24	=24	=24	=24	=24	=24	=24	=24	=24	=24	=24
8GG/L	.	4B/	8g\	8d/	16dd\LL]	2r	.	2r	.	2r	.	2r	.	1ryy	1ryy	1ryy	1ryy
.	.	.	.	.	16b\	.	.	.	.	.	.	.	.	.	.	.	.
8E/	.	.	4g\	4g/	16a\	.	.	.	.	.	.	.	.	.	.	.	.
.	.	.	.	.	16g\JJ	.	.	.	.	.	.	.	.	.	.	.	.
.	.	.	.	.	8qqb/	.	.	.	.	.	.	.	.	.	.	.	.
!	!	!LO:TX:a:Bi:t=t.:mod=	!	!	!	!	!	!	!	!	!	!	!	!	!	!	!
8C/	6 5	4A/	.	.	4aT>/	.	.	.	.	.	.	.	.	.	.	.	.
8D/J	.	.	8f#\	8f#/	.	.	.	.	.	.	.	.	.	.	.	.	.
4GG/	.	4G/	4g\	4g/	4g/	4r	.	4r	.	4r	.	4r	.	.	.	.	.
!!LO:TX:a:t= :mod=Tutti
!LO:TX:a:Bi:t=T&colon;:mod=	!	!	!	!	!	!	!	!	!	!	!	!	!	!	!	!	!
8G\L	5 x	8d\L	8b\L	8dd\L	8bb\L	8G\	A-	8d\	A-	8g\	A-	8b\	A-	.	.	.	.
8G\J	6 x	8e\J	8b\J	8ee\J	8bb\J	8G\	-gnus	8e\	-gnus	8g\	-gnus	8b\	-gnus	.	.	.	.
=25	=25	=25	=25	=25	=25	=25	=25	=25	=25	=25	=25	=25	=25	=25	=25	=25	=25
!LO:MO:mod=*null:null	!	!	!	!	!LO:MO:mod=*null:null	!	!	!	!	!	!	!	!	!	!	!	!
*2\right	*	*	*	*	*2\right	*	*	*	*	*	*	*	*	*	*	*	*
2F#\	7	4e\	4a\	4ee\	2aa\	4F#\	De-	4e\	De-	4a\	De-	4a\	De-	1ryy	1ryy	1ryy	1ryy
.	6\	4d#X\	4a\	4dd#X\	.	4F#\	-i	4d#X\	-i	4a\	-i	4a\	-i	.	.	.	.
8r	.	8r	8r	8r	8r	8r	.	8r	.	8r	.	8r	.	.	.	.	.
8BB/L	#	8d#\L	8a\L	8dd#\L	8aa\L	8BB/	qui	8d#\	qui	8f#\	qui	8a\	qui	.	.	.	.
8BB/	.	8d#\	8a\	8dd#\	8aa\	4BB/	tol-	4d#\	tol-	4f#\	tol-	4a\	tol-	.	.	.	.
8BB/J	.	8d#\J	8a\J	8dd#\J	8aa\J	.	.	.	.	.	.	.	.	.	.	.	.
!	!	!LO:LB:g=original	!	!	!LO:LB:g=original	!	!	!	!	!	!	!	!	!	!	!	!
=26	=26	=26	=26	=26	=26	=26	=26	=26	=26	=26	=26	=26	=26	=26	=26	=26	=26
4E\	.	4e\	4g\	4b\	4gg\	4E\	-lis	4B\	-lis	4e\	-lis	4g\	-lis	1ryy	1ryy	1ryy	1ryy
4C#X/	6	4e\	8r	4ee\	8r	4C#/	pec-	4A\	pec-	8r	.	4ee\	pec-	.	.	.	.
.	.	.	8a\	.	16aa\LL	.	.	.	.	16a\LL	pec-	.	.	.	.	.	.
.	.	.	.	.	16gg\JJ	.	.	.	.	16g\JJ	.	.	.	.	.	.	.
4D/	.	4f#\	4a\	4a/	4ff#\	4D/	-ca-	8A\L	-ca-	4f#\	-ca-	4dd\	-ca-	.	.	.	.
.	.	.	.	.	.	.	.	8d\J	.	.	.	.	.	.	.	.	.
4AA/	#	4e\	4a\	4cc#X\	4aa\	4AA/	-ta	4e\	-ta	4a\	-ta	4cc#\	-ta	.	.	.	.
=27	=27	=27	=27	=27	=27	=27	=27	=27	=27	=27	=27	=27	=27	=27	=27	=27	=27
!	!	!LO:MO:mod=*null:null	!LO:MO:mod=*null:null	!LO:MO:mod=*null:null	!	!	!	!	!	!	!	!LO:MO:mod=*null:null	!	!	!	!	!
*	*	*2\right	*2\right	*2\right	*	*	*	*	*	*	*	*2\right	*	*	*	*	*
2BB/	7	4d\	4a\	2dd\	4aa\	2BB/	mun-	4d\	mun-	4a\	mun-	2dd\	mun-	1ryy	1ryy	1ryy	1ryy
.	6\	4e\	4g#X\	.	4gg#X\	.	.	4e\	.	4g#X\	.	.	.	.	.	.	.
!	!	!	!	!	!	!	!	!LO:MO:mod=*null:null	!	!	!	!	!	!	!	!	!
*	*	*	*	*	*	*	*	*2\right	*	*	*	*	*	*	*	*	*
!LO:SIC:s=2AA;	!	!	!	!LO:SIC:s=2cc#;	!	!	!	!LO:SIC:s=2e;	!	!LO:SIC:s=2a;	!	!LO:SIC:s=2cc#;	!	!	!	!	!
2AA/	#	2e;>\	2a;>\	2cc;>\	2aa;>\	2AA;>/	-di	2e\	-di.	2a\	-di.	2cc#\	-di	.	.	.	.
==	==	==	==	==	==	==	==	==	==	==	==	==	==	==	==	==	==
*-	*-	*-	*-	*-	*-	*-	*-	*-	*-	*-	*-	*-	*-	*-	*-	*-	*-
!!!system-decoration: [(g1)][(g2)][(g3)][(g4)]<s13>
!!!RDF**kern: > = above
!!!RDF**kern: < = below
!!!filter-modern: shed -e "s/:TX:t=P:/:tx:t=p:/L" | shed -e "s/,//gk" | sic -sq | modori -m | autostem -r | tie -s | humtr -p | shed -e "s/yy//" | shed -k -e "s/[<>]//g"
!!!ENC: Berenika Jozajtis
!!!END: 2021-01-07
!!!ENC: Wojciech Jakubiak-Danek
!!!END: 2021-01-09
!!!ENC-modern: Andrzej Kubiczek
!!!END-modern: 2022-06-18
